X:3617
T:Cuckoo's Nest, The
T:Jackie Tar
T:Jacky Tar
R:hornpipe
Z:id:hn-hornpipe-38
M:C|
K:Em
|:GA|Beed efge|dBBA ~B3d|ABde faef|d2A2 A2GA|
Beed efge|dBGB d2cB|AGFE DEFA|GEED E2:|
|:GA|BGEG BGEG|BAGF E2FG|AFDF AFDF|AGFE D2EF|
~G3E g2fe|dBGB d2cB|AGFE DEFA|GEED E2:|
